Papirus-nordic/32x32/places/folder-red-tar.svg

<svg xmlns="http://www.w3.org/2000/svg" width="32" height="32" version="1"><rect width="25" height="16" x="3" y="12" rx="1.25" ry="1.25" opacity=".2"/><path d="M3 21.75c0 .692.558 1.25 1.25 1.25h22.5c.692 0 1.25-.558 1.25-1.25V8.25C28 7.558 27.442 7 26.75 7H14v-.75C14 5.558 13.443 5 12.75 5h-8.5C3.558 5 3 5.558 3 6.25" fill="#ae4f58"/><rect width="25" height="16" x="3" y="10" rx="1.25" ry="1.25" opacity=".2"/><rect width="21" height="10" x="5" y="9" rx="1.25" ry="1.25" fill="#e4e4e4"/><rect width="25" height="16" x="3" y="11" rx="1.25" ry="1.25" fill="#bf616a"/><path d="M4.25 5C3.558 5 3 5.558 3 6.25v1C3 6.558 3.558 6 4.25 6h8.5c.693 0 1.25.558 1.25 1.25V8h12.75c.692 0 1.25.557 1.25 1.25v-1C28 7.558 27.442 7 26.75 7H14v-.75C14 5.558 13.443 5 12.75 5h-8.5z" opacity=".1" fill="#fff"/><g fill="#974a4d"><path d="M15 11v1h1v-1h-1zm0 1h-1v1h1v-1zm0 1v1h1v-1h-1zm0 1h-1v1h1v-1zm0 1v1c.552 0 1-.5 1-1h-1zM15 16c-1.105 0-2 .9-2 2v4c0 1.1.895 2 2 2s2-.9 2-2v-4c0-1.1-.895-2-2-2zm0 1c.552 0 1 .4 1 1 0 .5-.448 1-1 1s-1-.5-1-1c0-.6.448-1 1-1zm0 3c.552 0 1 .4 1 1v1c0 .5-.448 1-1 1s-1-.5-1-1v-1c0-.6.448-1 1-1z"/></g></svg>

<svg xmlns="http://www.w3.org/2000/svg" width="32" height="32" version="1">
 <rect style="opacity:0.2" width="25" height="16" x="3" y="12" rx="1.25" ry="1.25"/>
 <path style="fill:#ae4f58" d="M 3,21.75 C 3,22.442 3.5575,23 4.25,23 H 26.75 C 27.442,23 28,22.442 28,21.75 V 8.25 C 28,7.5575 27.442,7 26.75,7 H 14 V 6.25 C 14,5.5575 13.443,5 12.75,5 H 4.25 C 3.5575,5 3,5.5575 3,6.25"/>
 <rect style="opacity:0.2" width="25" height="16" x="3" y="10" rx="1.25" ry="1.25"/>
 <rect style="fill:#e4e4e4" width="21" height="10" x="5" y="9" rx="1.25" ry="1.25"/>
 <rect style="fill:#bf616a" width="25" height="16" x="3" y="11" rx="1.25" ry="1.25"/>
 <path style="opacity:0.1;fill:#ffffff" d="M 4.25 5 C 3.5575 5 3 5.5575 3 6.25 L 3 7.25 C 3 6.5575 3.5575 6 4.25 6 L 12.75 6 C 13.443 6 14 6.5575 14 7.25 L 14 8 L 26.75 8 C 27.442 8 28 8.5575 28 9.25 L 28 8.25 C 28 7.5575 27.442 7 26.75 7 L 14 7 L 14 6.25 C 14 5.5575 13.443 5 12.75 5 L 4.25 5 z"/>
 <g>
  <path style="fill:#974a4d" d="M 15 11 L 15 12 L 16 12 L 16 11 L 15 11 z M 15 12 L 14 12 L 14 13 L 15 13 L 15 12 z M 15 13 L 15 14 L 16 14 L 16 13 L 15 13 z M 15 14 L 14 14 L 14 15 L 15 15 L 15 14 z M 15 15 L 15 16 C 15.552 16 16 15.5 16 15 L 15 15 z"/>
  <path style="fill:#974a4d" d="M 15,16 C 13.895,16 13,16.9 13,18 V 22 C 13,23.1 13.895,24 15,24 16.105,24 17,23.1 17,22 V 18 C 17,16.9 16.105,16 15,16 Z M 15,17 C 15.552,17 16,17.4 16,18 16,18.5 15.552,19 15,19 14.448,19 14,18.5 14,18 14,17.4 14.448,17 15,17 Z M 15,20 C 15.552,20 16,20.4 16,21 V 22 C 16,22.5 15.552,23 15,23 14.448,23 14,22.5 14,22 V 21 C 14,20.4 14.448,20 15,20 Z"/>
 </g>
</svg>
